Catalina-dark/actions/16/document-print-preview.svg

<?xml version="1.0" encoding="UTF-8" standalone="no"?>
<svg
   xmlns:dc="http://purl.org/dc/elements/1.1/"
   xmlns:cc="http://creativecommons.org/ns#"
   xmlns:rdf="http://www.w3.org/1999/02/22-rdf-syntax-ns#"
   xmlns:svg="http://www.w3.org/2000/svg"
   xmlns="http://www.w3.org/2000/svg"
   xmlns:sodipodi="http://sodipodi.sourceforge.net/DTD/sodipodi-0.dtd"
   xmlns:inkscape="http://www.inkscape.org/namespaces/inkscape"
   width="16"
   height="16"
   viewBox="0 0 16 16"
   version="1.1"
   id="svg7"
   sodipodi:docname="document-print-preview.svg"
   inkscape:version="0.92.4 5da689c313, 2019-01-14">
  <metadata
     id="metadata11">
    <rdf:RDF>
      <cc:Work
         rdf:about="">
        <dc:format>image/svg+xml</dc:format>
        <dc:type
           rdf:resource="http://purl.org/dc/dcmitype/StillImage" />
      </cc:Work>
    </rdf:RDF>
  </metadata>
  <sodipodi:namedview
     pagecolor="#ffffff"
     bordercolor="#666666"
     borderopacity="1"
     objecttolerance="10"
     gridtolerance="10"
     guidetolerance="10"
     inkscape:pageopacity="0"
     inkscape:pageshadow="2"
     inkscape:window-width="640"
     inkscape:window-height="480"
     id="namedview9"
     showgrid="false"
     inkscape:zoom="14.75"
     inkscape:cx="6.8135593"
     inkscape:cy="8"
     inkscape:window-x="0"
     inkscape:window-y="26"
     inkscape:window-maximized="0"
     inkscape:current-layer="svg7" />
  <defs
     id="defs3">
    <style
       id="current-color-scheme"
       type="text/css">
   .ColorScheme-Text { color:#5c616c; } .ColorScheme-Highlight { color:#5294e2; }
  </style>
  </defs>
  <path
     style="fill:#f1f6f8;fill-opacity:0.8509804"
     class="ColorScheme-Text"
     d="M 4 1 L 4 3 L 12 3 L 12 1 L 4 1 z M 2 4 C 1.5 4 1 4.5 1 5 L 1 9 C 1 9.5 1.5 10 2 10 L 3 10 L 3 8 L 8.125 8 C 8.78816 7.36737 9.67575 6.96875 10.65625 6.96875 C 12.43775 6.96875 13.94685 8.2485 14.28125 9.9375 C 14.674 9.80004 15 9.40686 15 9 L 15 5 C 15 4.5 14.5 4 14 4 L 2 4 z M 10.660156 7.9394531 C 9.1645562 7.9394531 7.9414062 9.1626031 7.9414062 10.658203 C 7.9414062 12.153803 9.1645563 13.376953 10.660156 13.376953 C 11.147256 13.376953 11.607396 13.228603 12.003906 13.001953 A 0.75008 0.75008 0 0 0 12.160156 13.220703 L 14.003906 15.033203 A 0.75130096 0.75130096 0 1 0 15.066406 13.970703 L 13.222656 12.158203 A 0.75008 0.75008 0 0 0 13.003906 12.001953 C 13.230556 11.605493 13.378906 11.145363 13.378906 10.658203 C 13.378906 9.1626031 12.155756 7.9394531 10.660156 7.9394531 z M 10.660156 8.9394531 C 11.615316 8.9394531 12.378906 9.7029931 12.378906 10.658203 C 12.378906 11.613363 11.615366 12.376953 10.660156 12.376953 C 9.7049963 12.376953 8.9414062 11.613413 8.9414062 10.658203 C 8.9414062 9.7030431 9.7049463 8.9394531 10.660156 8.9394531 z M 4 9 L 4 14 L 9.09375 14 C 7.84005 13.4087 6.96875 12.12485 6.96875 10.65625 C 6.96875 10.06088 7.12031 9.4998 7.375 9 L 4 9 z"
     id="path5" />
</svg>

<svg width="16" height="16" version="1.1" viewBox="0 0 16 16" xmlns="http://www.w3.org/2000/svg">
<defs>
<style id="current-color-scheme" type="text/css">.ColorScheme-Text { color:#5c616c; } .ColorScheme-Highlight { color:#5294e2; }</style>
</defs>
<path class="ColorScheme-Text" d="m4 1v2h8v-2h-8zm-2 3c-0.5 0-1 0.5-1 1v4c0 0.5 0.5 1 1 1h1v-2h5.125c0.66316-0.63263 1.5508-1.0312 2.5312-1.0312 1.7815 0 3.2906 1.2798 3.625 2.9688 0.39275-0.13746 0.71875-0.53064 0.71875-0.9375v-4c0-0.5-0.5-1-1-1h-12zm8.6602 3.9395c-1.4956 0-2.7187 1.2232-2.7187 2.7187 0 1.4956 1.2232 2.7188 2.7187 2.7188 0.4871 0 0.94724-0.14835 1.3438-0.375a0.75008 0.75008 0 0 0 0.15625 0.21875l1.8438 1.8125a0.7513 0.7513 0 1 0 1.0625-1.0625l-1.8438-1.8125a0.75008 0.75008 0 0 0-0.21875-0.15625c0.22665-0.39646 0.375-0.85659 0.375-1.3438 0-1.4956-1.2232-2.7187-2.7188-2.7187zm0 1c0.95516 0 1.7188 0.76354 1.7188 1.7187 0 0.95516-0.76354 1.7188-1.7188 1.7188-0.95516 0-1.7187-0.76354-1.7187-1.7188 0-0.95516 0.76354-1.7187 1.7187-1.7187zm-6.6602 0.060547v5h5.0938c-1.2537-0.5913-2.125-1.8752-2.125-3.3438 0-0.59537 0.15156-1.1564 0.40625-1.6562h-3.375z" fill="#f1f6f8" fill-opacity=".85098"/>
</svg>
